X:210
M:4/4
L:1/4
K:Eb
B B c d | e e d d | c c B G | A F E2 | B B c d | e e d d | c c B G | A F E2 | E/F/ G G G |   F F F/G/ | A A A | G G G | c c c | B3/2 A/ G | A G F | E !fermata!E E/F/ | G G G | F F F/G/ | A A A | G2 !sintro!G | c c c | B3/2 A/ G | A G F | E3 !eintro!|]
